app/client/src/assets/icons/blueprintjs/16px/inbox-update.svg

<?xml version="1.0" encoding="UTF-8"?>
<svg width="16px" height="16px" viewBox="0 0 16 16" version="1.1" xmlns="http://www.w3.org/2000/svg" xmlns:xlink="http://www.w3.org/1999/xlink">
    <!-- Generator: Sketch 52.6 (67491) - http://www.bohemiancoding.com/sketch -->
    <title>Artboard</title>
    <desc>Created with Sketch.</desc>
    <g id="Artboard" stroke="none" stroke-width="1" fill="none" fill-rule="evenodd">
        <g id="inbox-update" fill="#000000" fill-rule="nonzero">
            <path d="M8.10001812,2 C8.03443026,2.32310994 8,2.65753416 8,3 C8,3.34246584 8.03443375,3.67689006 8.10002729,4 L3.66,4 L1.95,8 L4,8 C4.55,8 5,8.45 5,9 L5,10 L11,10 L11,9 C11,8.45 11.45,8 12,8 L13,8 L14.05,8 C14.7581779,8 15.4020869,7.75877629 15.95497,7.35500213 L16,7.46 L16,13 C16,13.55 15.55,14 15,14 L1,14 C0.45,14 0,13.55 0,13 L0,7.46 L2.08,2.61 C2.23,2.25 2.59,2 3,2 L8.10001812,2 Z M13,6 C11.3431458,6 10,4.65685425 10,3 C10,1.34314575 11.3431458,8.8817842e-16 13,8.8817842e-16 C14.6568542,8.8817842e-16 16,1.34314575 16,3 C16,4.65685425 14.6568542,6 13,6 Z" id="Shape"></path>
        </g>
    </g>
</svg>

<svg xmlns="http://www.w3.org/2000/svg" width="16" height="16"><path fill-rule="nonzero" d="M8.1 2a5.023 5.023 0 0 0 0 2H3.66L1.95 8H4c.55 0 1 .45 1 1v1h6V9c0-.55.45-1 1-1h2.05c.708 0 1.352-.241 1.905-.645L16 7.46V13c0 .55-.45 1-1 1H1c-.55 0-1-.45-1-1V7.46l2.08-4.85C2.23 2.25 2.59 2 3 2h5.1ZM13 6a3 3 0 1 1 0-6 3 3 0 0 1 0 6Z"/></svg>
